X: 27841
T: Mother Redcap's
R: jig
M: 6/8
K: Adorian
d|:e2a aga|bge dBA|BGE DEG|BAG ABd|
eaa aga|bge dBA|BGE DGB|ABA ABd:|
|:~e3 deB|~e3 deB|dAB GAE|DGB ABd|
~e3 deB|~e3 deA|BGE DGB|ABA ABd:|

